X: 1
T: Eugene Stratton
M: 4/4
L: 1/8
R: hornpipe
K: Gmin
|: F2 | (3BBB FE DFBd | =efgf dBAB | c2 GF =EGcB | Acf=e gf_ec |
B2 FE DFBd | =efga bfdB | geBG Ebag | fdec B2 :|
|: a2 | bBAB gBAB | =efga bfdB | EGBe DFBd | cde=e f^fga |
bBAB gBAB | =efga bfdB | geBG Ebag | fdec B2 :|
